X: 1
T: Metal Man
M: 3/4
L: 1/8
R: waltz
K: Dmaj
|:FG A2F2|D2F2A2|cd e2c2|d2B2G2|FG A2F2|D2F2A2|E2ED EF|G2F2E2|
FG A2F2|D2F2A2|cd e2f2|g2f2e2|d2A2F2|GA B2G2|FE D2C2|D6:|
|:f2d2A2|e2c2A2|B2BA Bc|d2A2F2|GA B2G2|FG A2F2|E2ED EF|G2F2E2|
f2d2A2|e2c2A2|B2BA Bc|d2A2F2|GA B2G2|FE D2C2|D6-|D6:|
